X:1
T:Title
%%score { ( 1 3 ) | ( 2 4 ) }
L:1/8
Q:1/4=100
M:3/4
K:Db
V:1 treble nm="Grand Piano"
V:3 treble 
V:2 bass 
V:4 bass 
V:1
 [A,DF]4 [F,CF]2 | [F,DF]4 [G,=A,E]2 | [F,A,D]4[K:treble] [A,CE]2 | F6 | A4 d2 | d2 c2 [Fd]2 | %6
w: C.~R.~Anderson *||||||
 [Ge]4 [A,EG]2 | [A,DF]6 | [DFA]4 [DF=A]2 | [DGB]4 [DGB]2 | [EGA]4 [CEG]2 | [A,DF]6 | %12
w: ||||||
 [DA]2 [CG]2 [A,DF]2 | E2 z2 [DGB]2 | [CG]4[K:bass] z2 | [F,A,D]6 |] %16
w: ||||
V:2
 D,4 =A,,2 | B,,4 G,,2 | A,,4 A,,2 | [D,A,D]6 | [F,A,D]4 [_F,B,D]2 | [E,A,E]4 [D,A,]2 | %6
 [C,A,]4 A,,2 | D,6 | D,4 D,2 | G,2 E,2 D,2 | C,2 B,,2 A,,2 | D,6 | F,2 E,2 D,2 | z2 G2 G,,2 | %14
 z2 A2 A,,2 | D,6 |] %16
V:3
 x6 | x6 | x4[K:treble] x2 | x6 | x6 | x6 | x6 | x6 | x6 | x6 | x6 | x6 | A,4 z2 | [B,D]4 z2 | %14
 B2 z2[K:bass] [G,C]2 | x6 |] %16
V:4
 x6 | x6 | x6 | x6 | x6 | x6 | x6 | x6 | x6 | x6 | x6 | x6 | x6 | G,,4 z2 | A,,4 z2 | x6 |] %16

